X: 3306
M: 3/4
L: 1/4
K: G
d |\
gfg | efg | ea>g | fdd |\
g>fg | edc | BAG | d2c/B/ |\
cec | Bdg | dBG | BAd |\
g>fe | dgB | d>"_D.C. to Allegro."cB/A/ | Gz |]


